X: 552
T:Crock of Gold, The
M:4/4
L:1/8
C:Vincent Broderick
R:Reel
Z:Andrew Pickering
N:Posted to the woodenflute mailing list, July 2002
K:G
B2 dB BAGE|G2 GA GEDE|DEGA BAGA|B2 dB BA A2|B2 dB BAGE|
G2 GA GE D2| g2 fg egdB|DEGA BG G2:: eaag a2ga|baga bagf|
gedB G2 Bd|gedB BA A2|eaag a2ga|b2 ab ged2|g2 fg egdB|DEGA BG G2:|
<end>
<start>
